X:1
T:Har du en sak
T:Har du en sak
T:F. A. Reissiger
C:F. A. Reissiger
%%score [ 1 2 3 4 ]
L:1/8
Q:3/16=80
M:9/8
K:Bb
V:1 treble nm="Soprano"
V:2 treble nm="Alto"
V:3 treble-8 nm="Tenor"
V:4 bass nm="Bass"
V:1
 F3/2 F/ B | d3- d A B c3/2 B/ G | G3 F3 B D G | F3- F G A B3/2 d/ c | c3- c2 z c B A | %5
w: Har du en|sak _ du har els- ket for|al- le, Kjem- pet den|frem _ så du helt den for-|stod, _ Els- ket den|
 A3 G2 =E F G A | c3 B3 A B c | d3 B2 A G3/2 A/ G | F3- F2 z F3/2 F/ F | c3- c B A A3/2 G/ F | %10
w: slik, du fikk stå el- ler|fal- le, Ef- ter- som|kam- pen for den gav dig|mot, _ Gitt den din|tan- * ke, din vil- je, din|
 F3 B3 F3/2 F/ F | d3- d c =B B3/2 A/ G | c2 z e3 d2 c | B3- B A B d c G | B3 A3 B A G | %15
w: ev- ne, Så den har|brent _ sig i sje- len din|inn, Strå- let som|sol- * skin- net o- ver det|jev- ne, Løf- tet din|
 F3- F D B A F c | B3- B2 z |] %17
w: leng- * sel og styr- ket ditt|sinn. _|
V:2
 F3/2 F/ F | F3- F F F G3/2 G/ E | E3 D3 D D D | E3- E E E D3/2 F/ =E | F3- F2 z A G F | %5
w: Har du en|sak _ du har els- ket for|al- le, Kjem- pet den|frem _ så du helt den for-|stod, _ Els- ket den|
 =E3 E2 E F E F | G3 G3 F F F | (F2 ^F) G2 =F =E3/2 E/ E | C3- C2 z F3/2 F/ F | %9
w: slik, du fikk stå el- ler|fal- le, Ef- ter- som|kam- * pen for den gav dig|mot, _ Gitt den din|
 _E3- E E E E3/2 E/ E | D3 D3 F3/2 F/ F | F3- F F F F3/2 F/ F | E2 z F3 F2 E | D3- D G G G G E | %14
w: tan- * ke, din vil- je, din|ev- ne, Så den har|brent _ sig i sje- len din|inn, Strå- let som|sol- * skin- net o- ver det|
 E3 E3 D F E | D3- D D D C C E | D3- D2 z |] %17
w: jev- ne, Løf- tet din|leng- * sel og styr- ket ditt|sinn. _|
V:3
 F3/2 F/ F | B3- B e d e3/2 e/ B | B3 B3 B B B | c3- c c c B3/2 B/ B | A3- A2 z A B c | %5
w: Har du en|sak _ du har els- ket for|al- le, Kjem- pet den|frem _ så du helt den for-|stod, _ Els- ket den|
 _d3 d2 c c c c | c3 c3 c c c | (B2 c) d2 c B3/2 c/ B | A3- A2 z F3/2 F/ F | F3- F F F F3/2 G/ A | %10
w: slik, du fikk stå el- ler|fal- le, Ef- ter- som|kam- * pen for den gav dig|mot, _ Gitt den din|tan- * ke, din vil- je, din|
 B3 B3 d3/2 d/ c | =B3- B c d d3/2 c/ B | c2 z c3 _B2 A | G3- G c d e e e | c3 c3 B B B | %15
w: ev- ne, Så den har|brent _ sig i sje- len din|inn, Strå- let som|sol- * skin- net o- ver det|jev- ne, Løf- tet din|
 B3- B B B F A A | F3- F2 z |] %17
w: leng- * sel og styr- ket ditt|sinn. _|
V:4
 F,3/2 F,/ D, | B,,3- B,, B, B, E,3/2 E,/ G, | B,3 B,3 B, B, B, | A,3- A, G, ^F, G,3/2 G,/ C, | %4
w: Har du en|sak _ du har els- ket for|al- le, Kjem- pet den|frem _ så du helt den for-|
 F,3- F,2 z F, G, A, | B,3 B,2 B, A, G, F, | =E,3 E,3 F, G, A, | (B,2 A,) (G,=E,) F, C,3/2 C,/ C, | %8
w: stod, _ Els- ket den|slik, du fikk stå el- ler|fal- le, Ef- ter- som|kam- * pen * for den gav dig|
 F,3- F,2 z F,3/2 F,/ F, | A,,3- A,, B,, C, F,3/2 F,/ F, | B,,3 B,,3 B,3/2 B,/ _A, | %11
w: mot, _ Gitt den din|tan- * ke, din vil- je, din|ev- ne, Så den har|
 G,3- G, G, G, G,3/2 G,/ G, | C,2 z A,3 B,2 ^F, | G,3- G, G, G, E, E, E, | F,3 ^F,3 G, D, E, | %15
w: brent _ sig i sje- len din|inn, Strå- let som|sol- * skin- net o- ver det|jev- ne, Løf- tet din|
 F,3- F, F, F, F, F, F,, | B,,3- B,,2 z |] %17
w: leng- * sel og styr- ket ditt|sinn. _|

